svg/fluentui-system-icons/ic_fluent_panel_left_16_filled.svg

<svg width="16" height="16" viewBox="0 0 16 16" fill="none" xmlns="http://www.w3.org/2000/svg">
<path d="M4.5 3C3.11914 3 2 4.11926 2 5.5V10.5C2 11.8807 3.11914 13 4.5 13H11.5C12.8809 13 14 11.8807 14 10.5V5.5C14 4.11926 12.8809 3 11.5 3H4.5ZM7 4H11.5C12.3281 4 13 4.67163 13 5.5V10.5C13 11.3284 12.3281 12 11.5 12H7V4Z" fill="#212121"/>
</svg>

<svg xmlns="http://www.w3.org/2000/svg" width="16" height="16"><path d="M4.5 3A2.5 2.5 0 0 0 2 5.5v5A2.5 2.5 0 0 0 4.5 13h7a2.5 2.5 0 0 0 2.5-2.5v-5A2.5 2.5 0 0 0 11.5 3h-7ZM7 4h4.5A1.5 1.5 0 0 1 13 5.5v5a1.5 1.5 0 0 1-1.5 1.5H7V4Z"/></svg>
